!!!OTL: Der Scheintod Sur le pont d'Avignon
!!!ARE: Europa, Mitteleuropa, France
!!!YOR: 3, S. 124
!!    1889
!!!SCT: Q3058I
!!!YEM: Copyright 1995, estate of Helmut Schaffrath.
**kern
*ICvox
*Ivox
*M6/8
*k[b-]
*d:
{8d
=1
4.d
8e
8fn
8g
=2
2a
8r}
{8a
=3
4.dd
8dd
8ccn
8dd
=4
4ccn
8b-
8a
8r}
{16a
16b-
=5
4.ccn
8dd
8a
8g
=6
[4.fn
4fn]}
{8g
=7
4.a
8g
8d
8g
=8
4fn
8e
4d}
==
!!!AGN: Hochzeits - Lied
!! Melodievergleich zu Q0058G, anderes Lied.
!!!ONB: ESAC (Essen Associative Code) Database: BALLADE
!!!AMT: compound duple
!!!AIN: vox
!!!EED: Helmut Schaffrath
!!!EEV: 1.0
*-
